resources/svg/firewall.svg

<svg xmlns="http://www.w3.org/2000/svg" viewBox="0 0 24 24" fill="currentColor"><path fill-rule="evenodd" clip-rule="evenodd" d="M6.00562 2.01929C5.45333 2.01929 5.00562 2.467 5.00562 3.01929C5.00562 3.57157 5.45333 4.01929 6.00562 4.01929H12.0056C12.5579 4.01929 13.0056 3.57157 13.0056 3.01929C13.0056 2.467 12.5579 2.01929 12.0056 2.01929H6.00562ZM11.9225 4.99564C11.315 4.99564 10.8225 5.48812 10.8225 6.09564V7.89564C10.8225 8.50315 11.315 8.99564 11.9225 8.99564H17.7225C18.33 8.99564 18.8225 8.50315 18.8225 7.89564V6.09564C18.8225 5.48812 18.33 4.99564 17.7225 4.99564H11.9225ZM3.1 4.99597C2.49249 4.99597 2 5.48846 2 6.09597V7.89597C2 8.50348 2.49249 8.99597 3.1 8.99597H8.9C9.50751 8.99597 10 8.50348 10 7.89597V6.09597C10 5.48846 9.50751 4.99597 8.9 4.99597H3.1ZM3.1 14.9884C2.49249 14.9884 2 15.4809 2 16.0884V17.8884C2 18.4959 2.49249 18.9884 3.1 18.9884H8.9C9.50751 18.9884 10 18.4959 10 17.8884V16.0884C10 15.4809 9.50751 14.9884 8.9 14.9884H3.1ZM10.8225 16.0884C10.8225 15.4809 11.315 14.9884 11.9225 14.9884H17.7225C18.33 14.9884 18.8225 15.4809 18.8225 16.0884V17.8884C18.8225 18.4959 18.33 18.9884 17.7225 18.9884H11.9225C11.315 18.9884 10.8225 18.4959 10.8225 17.8884V16.0884ZM4.8479 11.0726C4.8479 10.4651 5.34039 9.97263 5.9479 9.97263H11.7479C12.3554 9.97263 12.8479 10.4651 12.8479 11.0726V12.8726C12.8479 13.4801 12.3554 13.9726 11.7479 13.9726H5.9479C5.34039 13.9726 4.8479 13.4801 4.8479 12.8726V11.0726ZM14.7135 10.0117C14.106 10.0117 13.6135 10.5042 13.6135 11.1117V12.9117C13.6135 13.5192 14.106 14.0117 14.7135 14.0117H20.5135C21.121 14.0117 21.6135 13.5192 21.6135 12.9117V11.1117C21.6135 10.5042 21.121 10.0117 20.5135 10.0117H14.7135ZM14 3.01929C14 2.467 14.4477 2.01929 15 2.01929H21C21.5523 2.01929 22 2.467 22 3.01929C22 3.57157 21.5523 4.01929 21 4.01929H15C14.4477 4.01929 14 3.57157 14 3.01929ZM15 19.9807C14.4477 19.9807 14 20.4285 14 20.9807C14 21.533 14.4477 21.9807 15 21.9807H21C21.5523 21.9807 22 21.533 22 20.9807C22 20.4285 21.5523 19.9807 21 19.9807H15ZM5.01196 20.9807C5.01196 20.4284 5.45968 19.9807 6.01196 19.9807H12.012C12.5642 19.9807 13.012 20.4284 13.012 20.9807C13.012 21.5329 12.5642 21.9807 12.012 21.9807H6.01196C5.45968 21.9807 5.01196 21.5329 5.01196 20.9807ZM3 9.97263C2.44772 9.97263 2 10.4203 2 10.9726V12.9726C2 13.5249 2.44772 13.9726 3 13.9726C3.55228 13.9726 4 13.5249 4 12.9726V10.9726C4 10.4203 3.55228 9.97263 3 9.97263ZM19.6292 5.99564C19.6292 5.44335 20.0769 4.99564 20.6292 4.99564C21.1814 4.99564 21.6292 5.44335 21.6292 5.99564V7.99564C21.6292 8.54792 21.1814 8.99564 20.6292 8.99564C20.0769 8.99564 19.6292 8.54792 19.6292 7.99564V5.99564ZM20.6448 14.9884C20.0925 14.9884 19.6448 15.4361 19.6448 15.9884V17.9884C19.6448 18.5407 20.0925 18.9884 20.6448 18.9884C21.1971 18.9884 21.6448 18.5407 21.6448 17.9884V15.9884C21.6448 15.4361 21.1971 14.9884 20.6448 14.9884ZM2 20.9807C2 20.4284 2.44772 19.9807 3 19.9807C3.55228 19.9807 4 20.4284 4 20.9807C4 21.5329 3.55228 21.9807 3 21.9807C2.44772 21.9807 2 21.5329 2 20.9807ZM3.01123 2.01929C2.45895 2.01929 2.01123 2.467 2.01123 3.01929C2.01123 3.57157 2.45895 4.01929 3.01123 4.01929C3.56352 4.01929 4.01123 3.57157 4.01123 3.01929C4.01123 2.467 3.56352 2.01929 3.01123 2.01929Z" fill="black"/></svg>

<svg viewBox="0 0 24 24"><g fill="none"><path fill-rule="evenodd" clip-rule="evenodd" d="M6.006 2.02a1 1 0 1 0 0 2h6a1 1 0 1 0 0-2h-6zm5.916 2.976a1.1 1.1 0 0 0-1.1 1.1v1.8a1.1 1.1 0 0 0 1.1 1.1h5.8a1.1 1.1 0 0 0 1.1-1.1v-1.8a1.1 1.1 0 0 0-1.1-1.1h-5.8zm-8.822 0a1.1 1.1 0 0 0-1.1 1.1v1.8a1.1 1.1 0 0 0 1.1 1.1h5.8a1.1 1.1 0 0 0 1.1-1.1v-1.8a1.1 1.1 0 0 0-1.1-1.1H3.1zm0 9.992a1.1 1.1 0 0 0-1.1 1.1v1.8a1.1 1.1 0 0 0 1.1 1.1h5.8a1.1 1.1 0 0 0 1.1-1.1v-1.8a1.1 1.1 0 0 0-1.1-1.1H3.1zm7.723 1.1a1.1 1.1 0 0 1 1.1-1.1h5.8a1.1 1.1 0 0 1 1.1 1.1v1.8a1.1 1.1 0 0 1-1.1 1.1h-5.8a1.1 1.1 0 0 1-1.1-1.1v-1.8zm-5.975-5.015a1.1 1.1 0 0 1 1.1-1.1h5.8a1.1 1.1 0 0 1 1.1 1.1v1.8a1.1 1.1 0 0 1-1.1 1.1h-5.8a1.1 1.1 0 0 1-1.1-1.1v-1.8zm9.866-1.061a1.1 1.1 0 0 0-1.1 1.1v1.8a1.1 1.1 0 0 0 1.1 1.1h5.8a1.1 1.1 0 0 0 1.1-1.1v-1.8a1.1 1.1 0 0 0-1.1-1.1h-5.8zM14 3.019a1 1 0 0 1 1-1h6a1 1 0 1 1 0 2h-6a1 1 0 0 1-1-1zm1 16.962a1 1 0 0 0 0 2h6a1 1 0 1 0 0-2h-6zm-9.988 1a1 1 0 0 1 1-1h6a1 1 0 0 1 0 2h-6a1 1 0 0 1-1-1zM3 9.973a1 1 0 0 0-1 1v2a1 1 0 1 0 2 0v-2a1 1 0 0 0-1-1zm16.63-3.977a1 1 0 1 1 2 0v2a1 1 0 0 1-2 0v-2zm1.015 8.992a1 1 0 0 0-1 1v2a1 1 0 1 0 2 0v-2a1 1 0 0 0-1-1zM2 20.981a1 1 0 1 1 2 0a1 1 0 0 1-2 0zM3.011 2.019a1 1 0 1 0 0 2a1 1 0 0 0 0-2z" fill="currentColor"/></g></svg>
